X: 373
M: 2/4
L: 1/8
K: D
V: 1
d/e/ |\
f2ed/c/ | dBAg | f2ed | ce2d/e/ |\
f2ed/c/ | dBAg | f2ed | Ad2 :|
V: 2 clef=bass middle=d
z |\
dd'c'a | zgfe | dd'ge | a2A2 |\
dd'c'a | zgfe | d2a2 | d3 :|
z |\

